svgs/solid/square-sliders.svg

<svg xmlns="http://www.w3.org/2000/svg" viewBox="0 0 448 512"><!-- Font Awesome Pro 6.0.0-alpha2 by @fontawesome - https://fontawesome.com License - https://fontawesome.com/license (Commercial License) --><path d="M384 32H64C28.654 32 0 60.654 0 96V416C0 451.346 28.654 480 64 480H384C419.346 480 448 451.346 448 416V96C448 60.654 419.346 32 384 32ZM384 336C384 353.673 369.673 368 352 368H320V384C320 401.673 305.673 416 288 416H288C270.327 416 256 401.673 256 384V368H96C78.327 368 64 353.673 64 336V336C64 318.327 78.327 304 96 304H256V288C256 270.327 270.327 256 288 256H288C305.673 256 320 270.327 320 288V304H352C369.673 304 384 318.327 384 336V336ZM384 176C384 193.673 369.673 208 352 208H192V224C192 241.673 177.673 256 160 256H160C142.327 256 128 241.673 128 224V208H96C78.327 208 64 193.673 64 176V176C64 158.327 78.327 144 96 144H128V128C128 110.327 142.327 96 160 96H160C177.673 96 192 110.327 192 128V144H352C369.673 144 384 158.327 384 176V176Z"/></svg>

<svg xmlns="http://www.w3.org/2000/svg" viewBox="0 0 448 512"><!--! Font Awesome Pro 6.4.0 by @fontawesome - https://fontawesome.com License - https://fontawesome.com/license (Commercial License) Copyright 2023 Fonticons, Inc. --><path d="M384 480c35.3 0 64-28.7 64-64l0-320c0-35.3-28.7-64-64-64L64 32C28.7 32 0 60.7 0 96L0 416c0 35.3 28.7 64 64 64l320 0zm0-144c0 17.7-14.3 32-32 32l-32 0 0 16c0 17.7-14.3 32-32 32s-32-14.3-32-32l0-16L96 368c-17.7 0-32-14.3-32-32s14.3-32 32-32l160 0 0-16c0-17.7 14.3-32 32-32s32 14.3 32 32l0 16 32 0c17.7 0 32 14.3 32 32zM352 144c17.7 0 32 14.3 32 32s-14.3 32-32 32l-160 0 0 16c0 17.7-14.3 32-32 32s-32-14.3-32-32l0-16-32 0c-17.7 0-32-14.3-32-32s14.3-32 32-32l32 0 0-16c0-17.7 14.3-32 32-32s32 14.3 32 32l0 16 160 0z"/></svg>
